dist/icons/svgs/question-solid.svg

<svg xmlns="http://www.w3.org/2000/svg" width="24" height="24" fill="currentcolor" class="icon-question-solid" viewBox="0 0 24 24">
  <path d="M9.375 8.25C9.375 8.95312 8.78906 9.5 8.125 9.5C7.42188 9.5 6.875 8.95312 6.875 8.25C6.875 5.51562 9.10156 3.25 11.875 3.25H13.125C15.8594 3.25 18.125 5.51562 18.125 8.25V8.40625C18.125 10.125 17.2266 11.6875 15.8203 12.625L14.1797 13.6797C13.9062 13.8359 13.75 14.1484 13.75 14.4609V14.5C13.75 15.2031 13.1641 15.75 12.5 15.75C11.7969 15.75 11.25 15.2031 11.25 14.5V14.4609C11.25 13.2891 11.8359 12.1953 12.8125 11.5703L14.4531 10.5156C15.1562 10.0469 15.625 9.26562 15.625 8.40625V8.25C15.625 6.88281 14.4922 5.75 13.125 5.75H11.875C10.4688 5.75 9.375 6.88281 9.375 8.25ZM12.5 20.75C11.9141 20.75 11.4062 20.4766 11.1328 19.9688C10.8594 19.5 10.8594 18.9141 11.1328 18.4062C11.4062 17.9375 11.9141 17.625 12.5 17.625C13.0469 17.625 13.5547 17.9375 13.8281 18.4062C14.1016 18.9141 14.1016 19.5 13.8281 19.9688C13.5547 20.4766 13.0469 20.75 12.5 20.75Z"/>
</svg>

<svg xmlns="http://www.w3.org/2000/svg" width="24" height="24" fill="currentColor" class="icon-question-solid" viewBox="0 0 24 24">
  <path d="M9.375 8.25c0 .703-.586 1.25-1.25 1.25-.703 0-1.25-.547-1.25-1.25 0-2.734 2.227-5 5-5h1.25c2.734 0 5 2.266 5 5v.156c0 1.719-.898 3.281-2.305 4.219l-1.64 1.055c-.274.156-.43.468-.43.78v.04c0 .703-.586 1.25-1.25 1.25-.703 0-1.25-.547-1.25-1.25v-.04c0-1.17.586-2.265 1.563-2.89l1.64-1.054c.703-.47 1.172-1.25 1.172-2.11V8.25c0-1.367-1.133-2.5-2.5-2.5h-1.25a2.49 2.49 0 0 0-2.5 2.5m3.125 12.5c-.586 0-1.094-.273-1.367-.781-.274-.469-.274-1.055 0-1.563a1.58 1.58 0 0 1 1.367-.781 1.56 1.56 0 0 1 1.328.781c.274.508.274 1.094 0 1.563a1.48 1.48 0 0 1-1.328.781"/>
</svg>
